icons/tokens/0x8dAEBADE922dF735c38C80C7eBD708Af50815fAa/logo.svg

<svg xmlns="http://www.w3.org/2000/svg" width="32" height="32" viewBox="0 0 32 32">
  <g fill="none" fill-rule="evenodd">
    <path fill="#FFF" d="M31.5,16 C31.5,13.97136 31.09638,11.94272 30.32014,10.06846 C29.5439,8.1942 28.39473,6.47432 26.96005,5.03995 C25.52568,3.60527 23.8058,2.4561 21.93154,1.67986 C20.05728,0.90362 18.02864,0.5 16,0.5 C13.97136,0.5 11.94272,0.90362 10.06846,1.67986 C8.1942,2.4561 6.47432,3.60527 5.03995,5.03995 C3.60527,6.47432 2.4561,8.1942 1.67986,10.06846 C0.90362,11.94272 0.5,13.97136 0.5,16 C0.5,18.02864 0.90362,20.05728 1.67986,21.93154 C2.4561,23.8058 3.60527,25.52568 5.03995,26.96005 C6.47432,28.39473 8.1942,29.5439 10.06846,30.32014 C11.94272,31.09638 13.97136,31.5 16,31.5 C18.02864,31.5 20.05728,31.09638 21.93154,30.32014 C23.8058,29.5439 25.52568,28.39473 26.96005,26.96005 C28.39473,25.52568 29.5439,23.8058 30.32014,21.93154 C31.09638,20.05728 31.5,18.02864 31.5,16 Z"/>
    <path fill="#000" d="M29.9999157,15.9999157 C29.9999157,23.7319881 23.7319881,29.9999157 15.9999157,29.9999157 C8.26803198,29.9999157 1.99991574,23.7319881 1.99991574,15.9999157 C1.99991574,8.26803198 8.26803198,1.99991574 15.9999157,1.99991574 C23.7319881,1.99991574 29.9999157,8.26803198 29.9999157,15.9999157 Z M32,15.9999157 C32,24.8365729 24.8365729,32 15.9999157,32 C7.16342705,32 0,24.8365729 0,15.9999157 C0,7.16342705 7.16342705,0 15.9999157,0 C24.8365729,0 32,7.16342705 32,15.9999157 Z M15.9967981,11.4380085 C17.164217,11.4380085 18.0980257,10.4886118 18.0980257,9.33678096 C18.0980257,8.16957275 17.1486289,7.23576405 15.9967981,7.23576405 C14.8295899,7.23576405 13.8955706,8.1851608 13.8955706,9.33678096 C13.8955706,10.5041998 14.8295899,11.4380085 15.9967981,11.4380085 Z M22.829632,14.7066549 L9.16417486,14.7066549 C9.02409302,14.7066549 8.91518729,14.8155607 8.91518729,14.9556425 L8.91518729,17.2590935 C8.91518729,17.3991753 9.02409302,17.508081 9.16417486,17.508081 L14.3469922,17.508081 L14.3469922,24.5275503 C14.3469922,24.6676321 14.4561086,24.7765379 14.5961904,24.7765379 L17.4287926,24.7765379 C17.5688744,24.7765379 17.6777802,24.6676321 17.6777802,24.5275503 L17.6777802,17.508081 L22.8605975,17.508081 C23.0006793,17.508081 23.1095851,17.3991753 23.1095851,17.2590935 L23.1095851,14.9556425 C23.0786196,14.8155607 22.9697139,14.7066549 22.829632,14.7066549 Z"/>
  </g>
</svg>

<svg xmlns="http://www.w3.org/2000/svg" width="32" height="32"><g fill="none" fill-rule="evenodd"><path fill="#FFF" d="M31.5 16c0-2.029-.404-4.057-1.18-5.932a15.545 15.545 0 00-3.36-5.028 15.545 15.545 0 00-5.028-3.36A15.553 15.553 0 0016 .5c-2.029 0-4.057.404-5.932 1.18A15.545 15.545 0 005.04 5.04a15.545 15.545 0 00-3.36 5.028A15.553 15.553 0 00.5 16c0 2.029.404 4.057 1.18 5.932a15.545 15.545 0 003.36 5.028 15.545 15.545 0 005.028 3.36A15.553 15.553 0 0016 31.5c2.029 0 4.057-.404 5.932-1.18a15.545 15.545 0 005.028-3.36 15.545 15.545 0 003.36-5.028A15.553 15.553 0 0031.5 16z"/><path fill="#000" d="M30 16c0 7.732-6.268 14-14 14S2 23.732 2 16 8.268 2 16 2s14 6.268 14 14zm2 0c0 8.837-7.163 16-16 16S0 24.837 0 16 7.163 0 16 0s16 7.163 16 16zm-16.003-4.562a2.102 2.102 0 000-4.202c-1.167 0-2.101.95-2.101 2.1 0 1.168.934 2.102 2.1 2.102zm6.833 3.269H9.164a.246.246 0 00-.249.249v2.303c0 .14.11.25.25.25h5.182v7.019c0 .14.11.249.25.249h2.832c.14 0 .249-.11.249-.25v-7.019h5.183c.14 0 .249-.109.249-.249v-2.303c-.031-.14-.14-.25-.28-.25z"/></g></svg>
